icons/shuffle.svg

<svg width="24" height="24" viewBox="0 0 24 24" fill="none" xmlns="http://www.w3.org/2000/svg">
<path fill-rule="evenodd" clip-rule="evenodd" d="M18.6096 2.07648C18.9829 1.9215 19.4127 2.00642 19.699 2.29171L21.7059 4.2917C21.8942 4.47934 22 4.73421 22 5.00003C22 5.26584 21.8942 5.52071 21.7059 5.70835L19.699 7.70835C19.4127 7.99363 18.9829 8.07856 18.6096 7.92358C18.2364 7.76859 17.9931 7.40418 17.9931 7.00003V6.07035C14.9117 6.50757 12.4761 8.93551 12.0365 12C12.4761 15.0645 14.9117 17.4925 17.9931 17.9297V17C17.9931 16.5959 18.2364 16.2315 18.6096 16.0765C18.9829 15.9215 19.4127 16.0064 19.699 16.2917L21.7059 18.2917C21.8942 18.4793 22 18.7342 22 19C22 19.2658 21.8942 19.5207 21.7059 19.7084L19.699 21.7084C19.4127 21.9936 18.9829 22.0786 18.6096 21.9236C18.2364 21.7686 17.9931 21.4042 17.9931 21V19.9454C14.9493 19.611 12.3601 17.7679 10.9965 15.1805C9.48587 18.047 6.4709 20 3 20C2.44772 20 2 19.5523 2 19C2 18.4477 2.44772 18 3 18C6.54267 18 9.47039 15.3894 9.95656 12C9.47039 8.61069 6.54267 6.00003 3 6.00003C2.44772 6.00003 2 5.55231 2 5.00003C2 4.44774 2.44772 4.00003 3 4.00003C6.4709 4.00003 9.48587 5.95307 10.9965 8.8196C12.3601 6.2322 14.9493 4.38904 17.9931 4.05462L17.9931 3.00003C17.9931 2.59588 18.2364 2.23146 18.6096 2.07648Z" fill="black"/>
</svg>

<svg
  width="24"
  height="24"
  viewBox="0 0 24 24"
  xmlns="http://www.w3.org/2000/svg"
>
  <path
    fill-rule="evenodd"
    clip-rule="evenodd"
    d="M18.61 2.076a1 1 0 0 1 1.089.216l2.007 2a1 1 0 0 1 0 1.416l-2.007 2A1 1 0 0 1 17.993 7v-.93c-3.081.438-5.517 2.866-5.956 5.93.44 3.065 2.875 5.492 5.956 5.93V17a1 1 0 0 1 1.706-.708l2.007 2a1 1 0 0 1 0 1.416l-2.007 2A1 1 0 0 1 17.993 21v-1.055a9.032 9.032 0 0 1-6.996-4.764A9.03 9.03 0 0 1 3 20a1 1 0 1 1 0-2c3.543 0 6.47-2.61 6.957-6C9.47 8.61 6.543 6 3 6a1 1 0 0 1 0-2 9.03 9.03 0 0 1 7.996 4.82 9.032 9.032 0 0 1 6.997-4.765V3a1 1 0 0 1 .617-.924z"
  />
</svg>
